projects/flag-game/flags/Singapore.svg

<svg viewBox="0 0 1000 667" xmlns="http://www.w3.org/2000/svg" xmlns:xlink="http://www.w3.org/1999/xlink"><clipPath id="a"><path d="m0 333h1000v333.71875h-1000zm0 0"/></clipPath><path d="m0 0h1000v333.332031h-1000zm0 0" fill="#ed2939" fill-rule="evenodd"/><g clip-path="url(#a)"><path d="m0 333.332031h1000v333.335938h-1000zm0 0" fill="#fff" fill-rule="evenodd"/></g><g fill-rule="evenodd"><path d="m342.980469 166.667969c0 16.40625-3.261719 32.808593-9.539063 47.964843-6.28125 15.160157-15.570312 29.066407-27.171875 40.667969-11.605469 11.601563-25.507812 20.890625-40.667969 27.171875-15.160156 6.277344-31.558593 9.539063-47.96875 9.539063-16.40625 0-32.808593-3.261719-47.96875-9.539063-15.15625-6.28125-29.0625-15.570312-40.664062-27.171875-11.601562-11.601562-20.894531-25.507812-27.171875-40.667969-6.277344-15.15625-9.542969-31.558593-9.542969-47.964843 0-16.410157 3.265625-32.8125 9.542969-47.96875 6.277344-15.160157 15.570313-29.066407 27.171875-40.667969s25.507812-20.890625 40.664062-27.167969c15.160157-6.28125 31.5625-9.542969 47.96875-9.542969 16.410157 0 32.808594 3.261719 47.96875 9.542969 15.160157 6.277344 29.0625 15.566407 40.667969 27.167969 11.601563 11.601562 20.890625 25.507812 27.171875 40.667969 6.277344 15.15625 9.539063 31.558593 9.539063 47.96875zm0 0" fill="#fff"/><path d="m382.371094 166.667969c0 15.503906-3.085938 31.003906-9.019532 45.328125-5.933593 14.328125-14.714843 27.46875-25.675781 38.433594-10.964843 10.964843-24.105469 19.742187-38.433593 25.675781-14.324219 5.9375-29.824219 9.019531-45.332032 9.019531-15.503906 0-31.003906-3.082031-45.328125-9.019531-14.328125-5.933594-27.46875-14.710938-38.433593-25.675781-10.960938-10.964844-19.742188-24.105469-25.675782-38.433594-5.933594-14.324219-9.019531-29.824219-9.019531-45.328125 0-15.507813 3.085937-31.007813 9.019531-45.332031 5.933594-14.328126 14.714844-27.46875 25.675782-38.429688 10.964843-10.964844 24.105468-19.746094 38.433593-25.679688 14.324219-5.933593 29.824219-9.015624 45.328125-9.015624 15.507813 0 31.007813 3.082031 45.332032 9.015624 14.328124 5.933594 27.46875 14.714844 38.433593 25.679688 10.960938 10.960938 19.742188 24.101562 25.675781 38.429688 5.933594 14.324218 9.019532 29.824218 9.019532 45.332031zm0 0" fill="#ed2939"/><path d="m233.148438 169.691406-17.03125-13.0625-17.023438 13.066406 6.554688-21.0625-17.082032-12.984374 21.078125.046874 6.46875-21.09375 6.472657 21.089844 21.078124-.050781-17.078124 12.988281zm0 0" fill="#fff"/><path d="m366.753906 169.691406-17.027344-13.0625-17.023437 13.066406 6.554687-21.0625-17.082031-12.984374 21.078125.046874 6.464844-21.09375 6.476562 21.089844 21.078126-.050781-17.078126 12.988281zm0 0" fill="#fff"/><path d="m300.019531 120.105469-17.027343-13.0625-17.023438 13.070312 6.554688-21.066406-17.082032-12.984375 21.078125.046875 6.464844-21.09375 6.472656 21.089844 21.078125-.050781-17.078125 12.988281zm0 0" fill="#fff"/><path d="m258.148438 249.03125-17.027344-13.0625-17.027344 13.066406 6.554688-21.0625-17.082032-12.984375 21.078125.046875 6.46875-21.09375 6.472657 21.089844 21.078124-.050781-17.078124 12.988281zm0 0" fill="#fff"/><path d="m341.753906 249.03125-17.027344-13.0625-17.023437 13.066406 6.554687-21.0625-17.082031-12.984375 21.078125.046875 6.464844-21.09375 6.476562 21.089844 21.078126-.050781-17.078126 12.988281zm0 0" fill="#fff"/></g></svg>

<?xml version="1.0" encoding="UTF-8"?>
<svg xmlns="http://www.w3.org/2000/svg" xmlns:xlink="http://www.w3.org/1999/xlink" viewBox="0 0 1000 667" version="1.1">
<defs>
<clipPath id="clip1">
  <path d="M 0 333 L 1000 333 L 1000 666.71875 L 0 666.71875 Z M 0 333 "/>
</clipPath>
</defs>
<g id="surface1065">
<path style=" stroke:none;fill-rule:evenodd;fill:rgb(92.939758%,16.078186%,22.3526%);fill-opacity:1;" d="M 0 0 L 1000 0 L 1000 333.332031 L 0 333.332031 Z M 0 0 "/>
<g clip-path="url(#clip1)" clip-rule="nonzero">
<path style=" stroke:none;fill-rule:evenodd;fill:rgb(99.998474%,99.998474%,99.998474%);fill-opacity:1;" d="M 0 333.332031 L 1000 333.332031 L 1000 666.667969 L 0 666.667969 Z M 0 333.332031 "/>
</g>
<path style=" stroke:none;fill-rule:evenodd;fill:rgb(99.998474%,99.998474%,99.998474%);fill-opacity:1;" d="M 342.980469 166.667969 C 342.980469 183.074219 339.71875 199.476562 333.441406 214.632812 C 327.160156 229.792969 317.871094 243.699219 306.269531 255.300781 C 294.664062 266.902344 280.761719 276.191406 265.601562 282.472656 C 250.441406 288.75 234.042969 292.011719 217.632812 292.011719 C 201.226562 292.011719 184.824219 288.75 169.664062 282.472656 C 154.507812 276.191406 140.601562 266.902344 129 255.300781 C 117.398438 243.699219 108.105469 229.792969 101.828125 214.632812 C 95.550781 199.476562 92.285156 183.074219 92.285156 166.667969 C 92.285156 150.257812 95.550781 133.855469 101.828125 118.699219 C 108.105469 103.539062 117.398438 89.632812 129 78.03125 C 140.601562 66.429688 154.507812 57.140625 169.664062 50.863281 C 184.824219 44.582031 201.226562 41.320312 217.632812 41.320312 C 234.042969 41.320312 250.441406 44.582031 265.601562 50.863281 C 280.761719 57.140625 294.664062 66.429688 306.269531 78.03125 C 317.871094 89.632812 327.160156 103.539062 333.441406 118.699219 C 339.71875 133.855469 342.980469 150.257812 342.980469 166.667969 Z M 342.980469 166.667969 "/>
<path style=" stroke:none;fill-rule:evenodd;fill:rgb(92.939758%,16.078186%,22.3526%);fill-opacity:1;" d="M 382.371094 166.667969 C 382.371094 182.171875 379.285156 197.671875 373.351562 211.996094 C 367.417969 226.324219 358.636719 239.464844 347.675781 250.429688 C 336.710938 261.394531 323.570312 270.171875 309.242188 276.105469 C 294.917969 282.042969 279.417969 285.125 263.910156 285.125 C 248.40625 285.125 232.90625 282.042969 218.582031 276.105469 C 204.253906 270.171875 191.113281 261.394531 180.148438 250.429688 C 169.1875 239.464844 160.40625 226.324219 154.472656 211.996094 C 148.539062 197.671875 145.453125 182.171875 145.453125 166.667969 C 145.453125 151.160156 148.539062 135.660156 154.472656 121.335938 C 160.40625 107.007812 169.1875 93.867188 180.148438 82.90625 C 191.113281 71.941406 204.253906 63.160156 218.582031 57.226562 C 232.90625 51.292969 248.40625 48.210938 263.910156 48.210938 C 279.417969 48.210938 294.917969 51.292969 309.242188 57.226562 C 323.570312 63.160156 336.710938 71.941406 347.675781 82.90625 C 358.636719 93.867188 367.417969 107.007812 373.351562 121.335938 C 379.285156 135.660156 382.371094 151.160156 382.371094 166.667969 Z M 382.371094 166.667969 "/>
<path style=" stroke:none;fill-rule:evenodd;fill:rgb(99.998474%,99.998474%,99.998474%);fill-opacity:1;" d="M 233.148438 169.691406 L 216.117188 156.628906 L 199.09375 169.695312 L 205.648438 148.632812 L 188.566406 135.648438 L 209.644531 135.695312 L 216.113281 114.601562 L 222.585938 135.691406 L 243.664062 135.640625 L 226.585938 148.628906 Z M 233.148438 169.691406 "/>
<path style=" stroke:none;fill-rule:evenodd;fill:rgb(99.998474%,99.998474%,99.998474%);fill-opacity:1;" d="M 366.753906 169.691406 L 349.726562 156.628906 L 332.703125 169.695312 L 339.257812 148.632812 L 322.175781 135.648438 L 343.253906 135.695312 L 349.71875 114.601562 L 356.195312 135.691406 L 377.273438 135.640625 L 360.195312 148.628906 Z M 366.753906 169.691406 "/>
<path style=" stroke:none;fill-rule:evenodd;fill:rgb(99.998474%,99.998474%,99.998474%);fill-opacity:1;" d="M 300.019531 120.105469 L 282.992188 107.042969 L 265.96875 120.113281 L 272.523438 99.046875 L 255.441406 86.0625 L 276.519531 86.109375 L 282.984375 65.015625 L 289.457031 86.105469 L 310.535156 86.054688 L 293.457031 99.042969 Z M 300.019531 120.105469 "/>
<path style=" stroke:none;fill-rule:evenodd;fill:rgb(99.998474%,99.998474%,99.998474%);fill-opacity:1;" d="M 258.148438 249.03125 L 241.121094 235.96875 L 224.09375 249.035156 L 230.648438 227.972656 L 213.566406 214.988281 L 234.644531 215.035156 L 241.113281 193.941406 L 247.585938 215.03125 L 268.664062 214.980469 L 251.585938 227.96875 Z M 258.148438 249.03125 "/>
<path style=" stroke:none;fill-rule:evenodd;fill:rgb(99.998474%,99.998474%,99.998474%);fill-opacity:1;" d="M 341.753906 249.03125 L 324.726562 235.96875 L 307.703125 249.035156 L 314.257812 227.972656 L 297.175781 214.988281 L 318.253906 215.035156 L 324.71875 193.941406 L 331.195312 215.03125 L 352.273438 214.980469 L 335.195312 227.96875 Z M 341.753906 249.03125 "/>
</g>
</svg>
